X:4672
L:1/8
M:6/8
K:G
 G2 F G2 F | G2 A B2 G | d2 ^c d2 c | d2 z4 | G2 F G2 F | G2 A B2 G | c2 B c2 d | e2 z g3 | 
 gdBdcA | G2 z4 |]

